packages/ui-icons/svg/Line/end.svg

<svg viewBox="0 0 1920 1920" version="1.1" xmlns="http://www.w3.org/2000/svg">
    <path d="M954.63973 826.4177L426.666667 298.444637 298.444637 426.666667 826.4177 954.63973 298.444637 1482.61279 426.666667 1610.83482 954.63973 1082.86176 1482.61279 1610.83482 1610.83482 1482.61279 1082.86176 954.63973 1610.83482 426.666667 1482.61279 298.444637z" fill-rule="nonzero" stroke="none" stroke-width="1"/>
</svg>

<svg viewBox="0 0 1920 1920" xmlns="http://www.w3.org/2000/svg">
    <path d="M954.64 826.418 426.667 298.445 298.445 426.667 826.418 954.64l-527.973 527.973 128.222 128.222 527.973-527.973 527.973 527.973 128.222-128.222-527.973-527.973 527.973-527.973-128.222-128.222z"/>
</svg>
